dist/svg/shopping-bag-duo-tone.svg

<svg xmlns="http://www.w3.org/2000/svg" viewBox="0 0 24 24"><path d="M6.9 4.259a2 2 0 0 1-.16.04c-.178.04-3.356 3.216-3.441 3.44-.054.142-.06.784-.05 5.461l.011 5.3.109.32c.151.445.362.783.695 1.116s.671.544 1.116.695l.32.109h13l.32-.109a2.74 2.74 0 0 0 1.116-.695c.333-.333.544-.671.695-1.116l.109-.32.012-5.28c.009-3.858 0-5.323-.033-5.44-.038-.134-.306-.421-1.632-1.752-.873-.876-1.65-1.632-1.727-1.68l-.14-.088-5.14-.007a524 524 0 0 0-5.18.006M17.44 6.5l.739.74H5.821l.739-.74.739-.74h9.402zm1.791 7.05-.011 4.79-.099.195c-.13.253-.467.559-.707.641-.17.058-.802.064-6.414.064s-6.244-.006-6.414-.064c-.24-.082-.577-.388-.707-.641l-.099-.195-.011-4.79-.01-4.79h14.482zM7.698 10.315a.8.8 0 0 0-.424.489c-.058.196.008.94.122 1.376a4.76 4.76 0 0 0 2.264 2.953c1.42.819 3.26.819 4.68 0a4.8 4.8 0 0 0 2.265-2.953c.114-.44.179-1.182.121-1.376-.095-.316-.412-.562-.726-.562-.3 0-.626.241-.713.527a3 3 0 0 0-.063.505c-.048.756-.365 1.434-.94 2.01-.652.651-1.379.955-2.284.955a3.1 3.1 0 0 1-2.226-.889c-.614-.584-.945-1.276-.998-2.09a3 3 0 0 0-.063-.491.8.8 0 0 0-.713-.527.9.9 0 0 0-.302.073" fill-rule="evenodd"/></svg>

<svg fill="none" xmlns="http://www.w3.org/2000/svg" viewBox="0 0 24 24"><path d="M6.900 4.259 C 6.878 4.267,6.806 4.285,6.740 4.299 C 6.562 4.339,3.384 7.515,3.299 7.739 C 3.245 7.881,3.239 8.523,3.249 13.200 L 3.260 18.500 3.369 18.820 C 3.520 19.265,3.731 19.603,4.064 19.936 C 4.397 20.269,4.735 20.480,5.180 20.631 L 5.500 20.740 12.000 20.740 L 18.500 20.740 18.820 20.631 C 19.265 20.480,19.603 20.269,19.936 19.936 C 20.269 19.603,20.480 19.265,20.631 18.820 L 20.740 18.500 20.752 13.220 C 20.761 9.362,20.752 7.897,20.719 7.780 C 20.681 7.646,20.413 7.359,19.087 6.028 C 18.214 5.152,17.437 4.396,17.360 4.348 L 17.220 4.260 12.080 4.253 C 9.253 4.249,6.922 4.252,6.900 4.259 M17.440 6.500 L 18.179 7.240 12.000 7.240 L 5.821 7.240 6.560 6.500 L 7.299 5.760 12.000 5.760 L 16.701 5.760 17.440 6.500 M19.231 13.550 L 19.220 18.340 19.121 18.535 C 18.991 18.788,18.654 19.094,18.414 19.176 C 18.244 19.234,17.612 19.240,12.000 19.240 C 6.388 19.240,5.756 19.234,5.586 19.176 C 5.346 19.094,5.009 18.788,4.879 18.535 L 4.780 18.340 4.769 13.550 L 4.759 8.760 12.000 8.760 L 19.241 8.760 19.231 13.550 M7.698 10.315 C 7.499 10.406,7.338 10.592,7.274 10.804 C 7.216 11.000,7.282 11.744,7.396 12.180 C 7.728 13.443,8.520 14.475,9.660 15.133 C 11.080 15.952,12.920 15.952,14.340 15.133 C 15.475 14.478,16.281 13.427,16.605 12.180 C 16.719 11.740,16.784 10.998,16.726 10.804 C 16.631 10.488,16.314 10.242,16.000 10.242 C 15.700 10.242,15.374 10.483,15.287 10.769 C 15.265 10.841,15.237 11.068,15.224 11.274 C 15.176 12.030,14.859 12.708,14.284 13.284 C 13.632 13.935,12.905 14.239,12.000 14.239 C 11.135 14.239,10.403 13.947,9.774 13.350 C 9.160 12.766,8.829 12.074,8.776 11.260 C 8.763 11.062,8.735 10.841,8.713 10.769 C 8.626 10.483,8.300 10.242,8.000 10.242 C 7.923 10.242,7.787 10.275,7.698 10.315 " stroke="none" fill-rule="evenodd" fill="currentColor"/></svg>
